X:1
T:Sweet nimphe
T:Thomas Morley
T:Source : First book of canzonets to two voices---London---T.Este---1595. Editor : André Vierendeels (16/11/16).
T:Notes : Original clefs : C1, C1 m40 in S2 : "E flat" notated as quarter in original print
T:Sweet nimphe
T:©
T:©
T:©
T:©
C:Thomas Morley
Z:©
%%score [ 1 2 ]
L:1/8
Q:1/4=127
M:4/4
K:F
V:1 treble nm="Soprano 1" snm="S 1"
V:2 treble nm="Soprano 2" snm="S 2"
V:1
 F4 A2 B2 | cBAG F2 G2 | A2 F4 B2- | B2 A2 G4 | A2 F2 A2 B2 | cBAG F2 G2 | A2 F4 c2 | %7
w: Sweet Nimphe come|to _ _ _ _ thy|lo- ver, to|_ thy lo-|ver, come to thy|lo- * * * * *|* ver, lo|
 c2 =B2 c2 F2 | D2 G2 C4 | z2 C2 c3 B | A2 A2 G4 | A2 F2 A2 B2 | cBAG F2 G2 | A2 F4 B2- | %14
w: heere a- lone, lo|heere a- lone,|our loves wee|may dis- co-|ver, sweet Nimphe come|to _ _ _ _ thy|lo- ver, to|
 B2 A2 G4 | A2 F2 A2 B2 | cBAG F2 G2 | A2 F4 c2 | c2 =B2 c2 F2 | D2 G2 C4 | z2 C2 c3 B | A2 A2 G4 | %22
w: _ the lo-|ver, come to thy|lo- * * * * *|* ver, lo|heere a- lone, lu|heere a- lone|our loves wee|may dis- co-|
 A2 c2 F2 G2 | A2 F2 A2 B2 | cBAG F2 G2 | C2 c2 B2 _e2 | d2 c4 =B2 | c2 c2 B2 A2 | G2 F2 B3 A | %29
w: ver, where the sweet|Night- in- gale with|wan- * * * * *|ton, with wan- ton|glo- * *|ses, hark hir love|to dis- clo- *|
 G2 F2 E2 A2 | G2 F4 E2 | F4 z2 f2 | e2 d2 c2 B2 | A2 d2 c2 B2 | A4 G4 | A2 c2 F2 G2 | %36
w: * * ses, to|dis- clo- *|ses, hark|hir love to dis-|clo- ses, to dis-|clo- *|ses, where the sweet|
 A2 F2 A2 B2 | cBAG F2 G2 | C2 c4 B2 | _e2 d2 c4- | c2 =B2 c2 c2 | B2 A2 G2 F2 | B3 A G2 F2 | %43
w: Night- in- gale with|wan- * * * * *|ton with wan-|ton glo- *|* * ses, hark|hir love to dis-|clo- * * *|
 E2 A2 G2 F2- | F2 E2 F4 | z2 f2 e2 d2 | c2 B2 A2 d2 | c2 B2 A4 | G4 A4- | A8 |] %50
w: ses, to dis- clo-|* * ses,|hark hir love|to dis- clo- *||* ses|_|
V:2
 z8 | C4 D2 E2 | FEDC D2 B,C | DE F4 E2 | F8 | z2 F2 A2 B2 | cBAG F2 A2 | G4 C2 c2 | c2 =B2 c2 G2 | %9
w: |Sweet Nimphe come|to- * * * * thy _|_ _ lo- *|ver,|come to thy|lo- * * * * *|ver, lo heere|a- * lone, our|
 c3 B A2 G2- | GF F4 E2 | F8 | z2 C2 D2 E2 | FEDC D2 B,C | DE F4 E2 | F8 | z2 F2 A2 B2 | %17
w: loves wee may dis-|* * co- *|ver,|sweet Nimph' come|to _ _ _ _ thy _|_ _ _ lo-|ver,|come to thy|
 cBAG F2 A2 | G4 C2 c2 | c2 =B2 c2 G2 | c3 B A2 G2- | GF F4 E2 | F8 | z2 c2 F2 G2 | A2 F2 A2 B2 | %25
w: lo- * * * * *|* ver, lo|heere a- lone our|loves wee may dis-|* * co- *|ver,|where the sweet|Night- in- gale with|
 c2 A2 G2 c2 | B2 _e2 d4 | c4 z2 c2 | B2 A2 G2 F2 | B3 A G2 F2 | E2 F2 G4 | A2 f2 e2 d2 | %32
w: wan- * ton, with|wan- ton glo-|ses, kark|hir love to dis-|clo- * * *||ses, hark hir love|
 c2 B2 A2 d2 | c2 B2 A2 G2- | GF F4 E2 | F8 | z2 c2 F2 G2 | A2 F2 A2 B2 | A2 c2 A2 G2 | c2 B2 _e4 | %40
w: to dis- clo- *|||ses,|where the sweet|Night- in- gale with|wan- ton with wan-|ton glo- *|
 d4 c4 | z2 c2 B2 A2 | G2 F2 B3 A | G2 F2 E2 F2 | G4 A2 f2 | e2 d2 c2 B2 | A2 d2 c2 B2 | %47
w: * ses|harh hir love|to dis- clo- *||* ses, hark|hir love to dis-|clo- * * *|
 A2 G3 F F2- | F2 E2 F4- | F8 |] %50
w: |* * ses.|_|

